source/images/icons/social/instagram.svg

<?xml version="1.0" encoding="UTF-8"?>
<svg width="24px" height="24px" viewBox="0 0 24 24" version="1.1" xmlns="http://www.w3.org/2000/svg" xmlns:xlink="http://www.w3.org/1999/xlink">
    <!-- Generator: Sketch 41.2 (35397) - http://www.bohemiancoding.com/sketch -->
    <title>intagram</title>
    <desc>Created with Sketch.</desc>
    <defs></defs>
    <g id="Landing-page" stroke="none" stroke-width="1" fill="none" fill-rule="evenodd">
        <g id="intagram" fill="#FFFFFF">
            <path d="M12,22.8 C17.9646753,22.8 22.8,17.9646753 22.8,12 C22.8,6.0353247 17.9646753,1.2 12,1.2 C6.0353247,1.2 1.2,6.0353247 1.2,12 C1.2,17.9646753 6.0353247,22.8 12,22.8 Z M12,24 C5.372583,24 0,18.627417 0,12 C0,5.372583 5.372583,0 12,0 C18.627417,0 24,5.372583 24,12 C24,18.627417 18.627417,24 12,24 Z" id="Combined-Shape"></path>
            <path d="M12,7.0815 C13.602,7.0815 13.792,7.0875 14.425,7.1165 C16.051,7.1905 16.8105,7.962 16.8845,9.576 C16.9135,10.2085 16.919,10.3985 16.919,12.0005 C16.919,13.603 16.913,13.7925 16.8845,14.425 C16.81,16.0375 16.0525,16.8105 14.425,16.8845 C13.792,16.9135 13.603,16.9195 12,16.9195 C10.398,16.9195 10.208,16.9135 9.5755,16.8845 C7.9455,16.81 7.19,16.035 7.116,14.4245 C7.087,13.792 7.081,13.6025 7.081,12 C7.081,10.398 7.0875,10.2085 7.116,9.5755 C7.1905,7.962 7.948,7.19 9.5755,7.116 C10.2085,7.0875 10.398,7.0815 12,7.0815 L12,7.0815 Z M12,6 C10.3705,6 10.1665,6.007 9.5265,6.036 C7.3475,6.136 6.1365,7.345 6.0365,9.526 C6.007,10.1665 6,10.3705 6,12 C6,13.6295 6.007,13.834 6.036,14.474 C6.136,16.653 7.345,17.864 9.526,17.964 C10.1665,17.993 10.3705,18 12,18 C13.6295,18 13.834,17.993 14.474,17.964 C16.651,17.864 17.865,16.655 17.9635,14.474 C17.993,13.834 18,13.6295 18,12 C18,10.3705 17.993,10.1665 17.964,9.5265 C17.866,7.3495 16.6555,6.1365 14.4745,6.0365 C13.834,6.007 13.6295,6 12,6 L12,6 Z M12,8.919 C10.2985,8.919 8.919,10.2985 8.919,12 C8.919,13.7015 10.2985,15.0815 12,15.0815 C13.7015,15.0815 15.081,13.702 15.081,12 C15.081,10.2985 13.7015,8.919 12,8.919 Z M12,14 C10.8955,14 10,13.105 10,12 C10,10.8955 10.8955,10 12,10 C13.1045,10 14,10.8955 14,12 C14,13.105 13.1045,14 12,14 Z M15.203,8.0775 C14.805,8.0775 14.4825,8.4 14.4825,8.7975 C14.4825,9.195 14.805,9.5175 15.203,9.5175 C15.6005,9.5175 15.9225,9.195 15.9225,8.7975 C15.9225,8.4 15.6005,8.0775 15.203,8.0775 Z" id="Shape"></path>
        </g>
    </g>
</svg>

<svg width="24" height="24" viewBox="0 0 24 24" xmlns="http://www.w3.org/2000/svg"><title>intagram</title><g fill="#FFF" fill-rule="evenodd"><path d="M12 22.8c5.965 0 10.8-4.835 10.8-10.8 0-5.965-4.835-10.8-10.8-10.8C6.035 1.2 1.2 6.035 1.2 12c0 5.965 4.835 10.8 10.8 10.8zm0 1.2C5.373 24 0 18.627 0 12S5.373 0 12 0s12 5.373 12 12-5.373 12-12 12z"/><path d="M12 7.082c1.602 0 1.792.006 2.425.035 1.626.074 2.386.845 2.46 2.459.028.633.034.822.034 2.425 0 1.602-.006 1.792-.035 2.424-.074 1.613-.832 2.386-2.459 2.46-.633.028-.822.034-2.425.034-1.602 0-1.792-.006-2.425-.035-1.63-.074-2.385-.849-2.459-2.46-.029-.632-.035-.822-.035-2.424 0-1.602.006-1.791.035-2.425.075-1.613.832-2.385 2.46-2.459.633-.028.822-.034 2.424-.034zM12 6c-1.63 0-1.834.007-2.473.036-2.18.1-3.39 1.309-3.49 3.49-.03.64-.037.845-.037 2.474 0 1.63.007 1.834.036 2.474.1 2.179 1.309 3.39 3.49 3.49.64.029.845.036 2.474.036 1.63 0 1.834-.007 2.474-.036 2.177-.1 3.391-1.309 3.49-3.49.029-.64.036-.845.036-2.474 0-1.63-.007-1.834-.036-2.473-.098-2.177-1.308-3.39-3.49-3.49C13.835 6.006 13.63 6 12 6zm0 2.919a3.081 3.081 0 1 0 0 6.162 3.081 3.081 0 0 0 0-6.162zM12 14a2 2 0 1 1 0-4 2 2 0 0 1 0 4zm3.203-5.922a.72.72 0 1 0 0 1.44.72.72 0 0 0 0-1.44z"/></g></svg>
